icon/gr/snapchat.svg

<svg xmlns="http://www.w3.org/2000/svg" viewBox="0 0 24 24" height="1em" width="1em">
  <path fill="#FFFC00" fill-rule="evenodd" d="M12.1511006,22.5316101 C12.0830801,22.5316101 12.0181804,22.5291262 11.9688209,22.5267697 C11.9296518,22.5301452 11.8892088,22.5316101 11.8487022,22.5316101 C10.4196979,22.5316101 9.46422593,21.8560541 8.62103883,21.259537 C8.01668787,20.8326253 7.44672931,20.4295973 6.77900716,20.3185226 C6.45106922,20.2641317 6.12485091,20.236554 5.8096509,20.236554 C5.24173041,20.236554 4.79290954,20.3246368 4.46522636,20.3887086 C4.26358497,20.4280051 4.08971226,20.4618243 3.95532713,20.4618243 C3.81457303,20.4618243 3.64356636,20.4306164 3.57229765,20.1872583 C3.51580495,19.9952977 3.47529834,19.809324 3.4361929,19.6302287 C3.33836562,19.1826816 3.26741536,18.9095168 3.09984793,18.8835951 C1.30755787,18.6070547 0.248590282,18.1996958 0.0376502063,17.7063558 C0.0155499024,17.6545125 0.00319411295,17.6023507 0.00045545858,17.5507621 C-0.00776050453,17.4037027 0.096053603,17.2747312 0.241011216,17.2507202 C1.66434721,17.0163423 2.92992398,16.2640403 4.00277591,15.0140038 C4.83386197,14.0462398 5.24198516,13.1215937 5.28580363,13.0194992 C5.28771432,13.0149135 5.28994346,13.0100731 5.29223629,13.0056785 C5.49903654,12.5860912 5.54018004,12.2235061 5.41490253,11.9283046 C5.18396391,11.3836946 4.41911506,11.141037 3.9131009,10.9804755 C3.78725018,10.9406695 3.66821425,10.9029652 3.57338038,10.8653246 C3.12481427,10.68814 2.38709721,10.3137724 2.48537032,9.79705834 C2.55695747,9.42027045 3.05532887,9.15786915 3.45810214,9.15786915 C3.56994114,9.15786915 3.66904221,9.17748555 3.75247564,9.21665468 C4.20760178,9.42988758 4.61706245,9.5379689 4.96920245,9.5379689 C5.40713239,9.5379689 5.61864568,9.37122943 5.66978845,9.32384434 C5.65717791,9.09023075 5.64176501,8.84324234 5.62686164,8.60962875 C5.62686164,8.609374 5.62654319,8.60657165 5.62654319,8.60657165 C5.52374812,6.97134023 5.39554088,4.93632897 5.91607628,3.76934376 C7.47405217,0.276158264 10.7780794,0.00452196419 11.7532952,0.00452196419 C11.7792805,0.00452196419 12.1783598,0.000573206729 12.1783598,0.000573206729 C12.196384,0.000254758546 12.2159367,0 12.23619,0 C13.2140807,0 16.5249864,0.271954748 18.0839176,3.767242 C18.604453,4.93499149 18.4761184,6.97172237 18.3730049,8.60867341 L18.3681645,8.68701166 C18.3540254,8.90928849 18.340969,9.11965536 18.3299507,9.32358958 C18.3781001,9.36791757 18.5716529,9.52077269 18.9654459,9.53624928 C19.301154,9.52338397 19.6869221,9.41581217 20.111732,9.21690944 C20.24306,9.15525787 20.3884635,9.14245625 20.4871824,9.14245625 C20.6364072,9.14245625 20.7882433,9.17149873 20.9147946,9.22429744 L20.9215457,9.22690871 C21.2820291,9.35486119 21.5181265,9.61057508 21.5232217,9.87921797 C21.5277437,10.1296456 21.3416426,10.5039496 20.4262951,10.865452 C20.332544,10.902583 20.2129348,10.9405421 20.0865746,10.9806029 C19.5801146,11.1413555 18.8159026,11.3838856 18.584964,11.9281773 C18.4594954,12.2233787 18.5007663,12.5858365 18.7076303,13.0052964 C18.7099231,13.0098821 18.7118975,13.0145314 18.7141266,13.0193718 C18.7778162,13.1686603 20.3194239,16.683755 23.758919,17.2504017 C23.9038129,17.2745401 24.0078181,17.403639 23.9995385,17.5504436 C23.9964814,17.6031786 23.9837434,17.6559137 23.9614521,17.7074386 C23.7519768,18.1980398 22.693073,18.6048256 20.9002734,18.8817481 C20.7320054,18.9077335 20.6611188,19.1796882 20.5641832,19.6248788 C20.5240587,19.8087507 20.4832336,19.9889924 20.4275052,20.1784054 C20.3753434,20.3565453 20.2593009,20.443609 20.072945,20.443609 L20.0448579,20.443609 C19.9235291,20.443609 19.7516308,20.4215724 19.5348313,20.3791551 C19.1558779,20.3054025 18.730877,20.2367451 18.1904067,20.2367451 C17.8752704,20.2367451 17.5491158,20.2643864 17.2207957,20.3187137 C16.5537741,20.4297884 15.9838793,20.8321795 15.380611,21.2586453 C14.535768,21.8559904 13.5799776,22.5316101 12.1511006,22.5316101"/>
</svg>

<svg xmlns="http://www.w3.org/2000/svg" width="24" height="24"><path fill="#FFFC00" fill-rule="evenodd" d="M12.151 22.532c-.068 0-.133-.003-.182-.005-.04.003-.08.005-.12.005-1.43 0-2.385-.676-3.228-1.272-.604-.427-1.174-.83-1.842-.941a5.947 5.947 0 0 0-.97-.082c-.567 0-1.016.088-1.344.152-.201.039-.375.073-.51.073-.14 0-.311-.031-.383-.275-.056-.192-.097-.378-.136-.557-.098-.447-.169-.72-.336-.746C1.308 18.607.249 18.2.038 17.706A.458.458 0 0 1 0 17.551a.288.288 0 0 1 .241-.3c1.423-.235 2.689-.987 3.762-2.237a8.434 8.434 0 0 0 1.29-2.008c.206-.42.247-.782.122-1.078-.231-.544-.996-.787-1.502-.948a5.405 5.405 0 0 1-.34-.115c-.448-.177-1.186-.551-1.088-1.068.072-.377.57-.64.973-.64.112 0 .211.02.294.06.456.213.865.321 1.217.321.438 0 .65-.167.7-.214a74.562 74.562 0 0 0-.042-.717c-.103-1.636-.231-3.67.29-4.838C7.473.276 10.777.005 11.752.005A249 249 0 0 0 12.236 0c.978 0 4.289.272 5.848 3.767.52 1.168.392 3.205.289 4.842l-.005.078a67.21 67.21 0 0 0-.038.637c.048.044.242.197.635.212.336-.013.722-.12 1.147-.32a.906.906 0 0 1 .375-.074c.15 0 .301.03.428.082l.007.003c.36.128.596.384.601.652.005.25-.181.625-1.097.986a5.552 5.552 0 0 1-.34.116c-.506.16-1.27.403-1.501.947-.126.295-.084.658.123 1.077l.006.014c.064.15 1.605 3.665 5.045 4.231a.288.288 0 0 1 .24.3.462.462 0 0 1-.038.157c-.209.491-1.268.898-3.06 1.175-.169.026-.24.298-.337.743-.04.184-.08.364-.136.553-.053.179-.169.266-.355.266h-.028c-.121 0-.293-.022-.51-.065a6.712 6.712 0 0 0-1.345-.142c-.315 0-.64.027-.97.082-.666.11-1.236.513-1.84.94-.844.597-1.8 1.273-3.229 1.273"/></svg>
